X:197 
T:Sweep's Hornpipe, The 
B:CRE3.216 (An Scuabaire)
F:file ID: cre.3/197sweeps
N:Note that CRE's setting is ABB, which is an unusual structure for a
hornpipe.
R:hornpipe
L:1/8
Q:150
M:C
K:G
(3DEF|:G2D2 BAGF|E2e2 e2dc|(3BdB GB ADFD|1 GABG EDB,D:|\
[2 G2F2 G2||
|:bf|gafa e2bf|(3gag (3fgf e2ag|faef d2ag|(3fgf (3efe d2bf|
gafa e2bf|(3gag (3fgf e2Bf|edef gfga|b2e2e2:|

%%%

